X: 25
T:Chelsea Reach
K:F
M:6/8
c|A>GF G2 E|F2 F F2 f|def def|g2 e c2 c|ABc ABc|Bcd d>cB|A>GF G2 e|f2 F F2:|
|: f|f>gf d>cd|d>ed c>BA|A>Bc c>d=B|c2 c c2 c|AGA BAB|GAB cBc|def fge|f2 F F2:|

